X:60
T: Ned Connell's Polka #1
S: "First Collection of Traditional Irish Music" (M.Mulvihill)
Z: B.Black
L: 1/8
M: 2/4
R: polka
K: D
B|AF FE|DF FB|AF DF|E2 E>B|
AF FE|DF FB|AF EF/E/|D2 D :|
B|Ad de|fd dB|Ad fd|e2 e>B|
Ad de|fd dB|AF E F/E/|D2 D :|
